X:1022
M:C
L:1/8
Q:1/2=104
K:D
g|fdad Tf2df|gfed ceeg|fdad fadf|gbag fdda|
  fdad Tf2df|gfed ceeg|B2GB ceAc|dfeg fdd|]

